X:1
T:Title
%%score { ( 1 3 ) | ( 2 4 ) }
L:1/8
Q:1/4=108
M:4/4
K:Eb
V:1 treble nm="Grand Piano"
V:3 treble 
V:2 bass 
V:4 bass 
V:1
 G2 G2 EFGA | B4 G4 | G2 G2 EGBG | [DF]6 z2 | G2 G2 EFG[EA] | [EB]4 [Ec]2 [Ec][Ec] | %6
 [B,EB]2 E-[EF] [B,EG]2 [A,DF]2 |[M:3/4] [G,E]6 |[M:1/4] [FB]>[FB] | %9
[M:4/4] [Ee]2 [Ee]2 [Bd]2 .[CAc]2 | [EGB]4 G2 EF | G2 G2 [FB]2 [GB]>[EG] |[M:3/4] [DF]6 | %13
[M:1/4] [DB][DB] |[M:4/4] [Ee]2 [Ge]2 [Ed]2 [Ec]2 | [B,EB]4 [CEG]2 [G,E][A,EF] | %16
 [B,EG]2 [B,B][CA] [B,EG]2 [A,DF]2 |[M:3/4] [G,E]6 |] %18
V:2
 [E,B,E]2 [E,B,E]2 [G,B,][F,B,D][E,B,E][F,B,E] | [G,B,E]4 [E,B,E]4 | %2
 [E,B,E]2 [E,B,E]2 [E,G,][E,B,E][G,B,E][E,B,E] | [B,,B,]6 z2 | %4
 [E,B,E]2 [E,B,E]2 [G,B,][F,A,D][E,B,E][C,A,] | [B,,G,]4 [A,,A,]2 [A,,A,][A,,A,] | %6
 G,,2 z A, B,,2 B,,2 |[M:3/4] E,6 |[M:1/4] [D,A,]>[D,A,] |[M:4/4] [E,G,]2 [E,G,]2 A,B, z D | %10
 E,4 [E,B,E]2 [G,B,][F,A,D] | [E,B,E]2 [E,B,E]2 [D,B,]2 [E,B,]2 |[M:3/4] [B,,B,]6 | %13
[M:1/4] [B,,A,][B,,A,] |[M:4/4] [E,G,]2 [E,B,]2 [A,,A,]2 [A,,A,]2 | G,,4 C,2 C,C, | %16
 B,,2 G,,A,, B,,2 B,,2 |[M:3/4] E,6 |] %18
V:3
 x8 | x8 | x8 | x8 | x8 | x8 | z2 .G,2 z4 |[M:3/4] x6 |[M:1/4] x2 |[M:4/4] x8 | x8 | x8 | %12
[M:3/4] x6 |[M:1/4] x2 |[M:4/4] x8 | x8 | z2 E2 z4 |[M:3/4] x6 |] %18
V:4
 x8 | x8 | x8 | x8 | x8 | x8 | z2 C,2 z4 |[M:3/4] x6 |[M:1/4] x2 |[M:4/4] z4 E,2 E,2 | x8 | x8 | %12
[M:3/4] x6 |[M:1/4] x2 |[M:4/4] x8 | x8 | x8 |[M:3/4] x6 |] %18

